assets/ir-logo-3b1e43b2.svg

<svg width="64" height="64" viewBox="0 0 64 64" fill="none" xmlns="http://www.w3.org/2000/svg">
<g clip-path="url(#clip0_2736_152)">
<path d="M21.7993 11.082C23.947 11.082 25.751 12.9505 25.751 15.1411C25.751 17.4391 23.9685 19.2861 21.7993 19.2861C19.6087 19.2861 17.8477 17.4176 17.8477 15.1411C17.8477 12.9505 19.6732 11.082 21.7993 11.082Z" fill="#ED2926"/>
<path d="M49.7821 33.2242C47.2908 33.2242 45.7874 31.1625 45.9807 29.2081C46.0881 28.2202 46.5606 27.2108 46.1311 26.2014C45.6371 24.9773 44.2197 25.0846 42.8452 25.7504C40.8049 26.7383 39.3015 29.4014 39.3015 32.4511V41.4927L39.3445 42.8028C39.4304 45.5303 40.9552 47.0981 43.468 47.0981V48.1289H29.1217H14.7754V47.0981C17.2237 47.0981 18.6841 45.5732 18.8988 42.7813L18.9848 41.0632V31.8068C18.9848 30.4752 18.5552 29.3155 17.7606 28.5638C17.0304 27.8551 16.021 27.533 14.8613 27.5974L14.6895 26.588C14.6895 26.588 24.6331 23.0873 24.7405 23.0444C24.8264 23.0229 24.9337 23.0444 24.9337 23.1732V41.4712L24.9767 42.7598C25.0841 45.5088 26.5874 47.0766 29.1002 47.0551C31.5485 47.0551 33.0089 45.5303 33.2237 42.7383L33.3096 41.0202V31.7638C33.3096 30.4323 32.8801 29.2726 32.0854 28.5424C31.3552 27.8336 30.3458 27.5115 29.1861 27.5759L29.0358 26.5665L37.4546 23.6028L37.5405 23.7101C37.8411 24.0538 38.7002 25.4712 39.1082 27.1679C40.0317 26.2014 41.2344 25.1705 42.5874 24.3974C42.6089 24.3974 42.6089 24.3759 42.6304 24.3759C43.8546 23.6887 45.2076 23.2377 46.625 23.2377H46.6035C48.6653 23.1947 50.5123 23.9893 51.8653 25.192C52.9176 26.137 53.6264 27.7692 53.6264 29.0793C53.6478 31.0981 52.2948 33.2242 49.7821 33.2242Z" fill="#ED2926"/>
</g>
<defs>
<clipPath id="clip0_2736_152">
<rect width="64" height="64" fill="white"/>
</clipPath>
</defs>
</svg>

<svg xmlns="http://www.w3.org/2000/svg" width="64" height="64" fill="none" viewBox="0 0 64 64"><g fill="#ED2926" clip-path="url(#a)"><path d="M21.8 11.082c2.147 0 3.951 1.868 3.951 4.06 0 2.297-1.783 4.144-3.952 4.144-2.19 0-3.951-1.868-3.951-4.145 0-2.19 1.825-4.059 3.951-4.059Zm27.982 22.142c-2.491 0-3.995-2.061-3.801-4.016.107-.988.58-1.997.15-3.007-.494-1.224-1.911-1.116-3.286-.45-2.04.987-3.544 3.65-3.544 6.7v9.042l.043 1.31c.086 2.727 1.611 4.295 4.124 4.295v1.03H14.775v-1.03c2.449 0 3.91-1.525 4.124-4.317l.086-1.718v-9.256c0-1.332-.43-2.491-1.224-3.243-.73-.709-1.74-1.031-2.9-.967l-.171-1.009s9.943-3.5 10.05-3.544c.086-.021.194 0 .194.13V41.47l.043 1.289c.107 2.749 1.61 4.317 4.123 4.295 2.448 0 3.909-1.525 4.124-4.317l.086-1.718v-9.256c0-1.332-.43-2.491-1.225-3.222-.73-.708-1.74-1.03-2.899-.966l-.15-1.01 8.419-2.963.086.107c.3.344 1.16 1.761 1.567 3.458.924-.967 2.126-1.997 3.48-2.77.02 0 .02-.022.042-.022 1.225-.687 2.578-1.138 3.995-1.138h-.022a7.683 7.683 0 0 1 5.262 1.954c1.053.945 1.761 2.577 1.761 3.887.022 2.02-1.331 4.145-3.844 4.145Z"/></g><defs><clipPath id="a"><path fill="#fff" d="M0 0h64v64H0z"/></clipPath></defs></svg>
